!!!COM: Music21
!!!OTL: march_Miss-Elspeth-Campbell
!!!OMV: march_Miss-Elspeth-Campbell
**kern
*clefG2
*k[f#c#]
*M4/4
=1
8.eeL
16ddJk
=||
16cc#KL
8.eeJ
4a
4a
8.cc#L
16ddJk
=
4ee
8.cc#L
16aJk
4aa
8.eeL
16ff#Jk
=
4gg
8.eeL
16ddJk
4b
8.gL
16bJk
=
8.eeL
16ddJk
8.bL
16aJk
8.gL
16bJk
8.ddL
16eeJk
=
16cc#KL
8.eeJ
4a
4a
8.cc#L
16ddJk
!!linebreak:original
=
4ee
8.cc#L
16aJk
4aa
8.eeL
16ff#Jk
=
4gg
8.eeL
16ddJk
8.bL
16aJk
8.gL
16bJk
=
4a
4ee
4a
8.eeL
16ddJk
=||
16cc#KL
8.eeJ
4a
4a
8.cc#L
16ddJk
=
4ee
8.cc#L
16aJk
4aa
8.eeL
16ff#Jk
=
4gg
8.eeL
16ddJk
4b
8.gL
16bJk
!!linebreak:original
=
8.eeL
16ddJk
8.bL
16aJk
8.gL
16bJk
8.ddL
16eeJk
=
16cc#KL
8.eeJ
4a
4a
8.cc#L
16ddJk
=
4ee
8.cc#L
16aJk
4aa
8.eeL
16ff#Jk
=
4gg
8.eeL
16ddJk
8.bL
16aJk
8.gL
16bJk
=
4a
4ee
4a
12eeL
12ff#
12ggJ
!!linebreak:original
=||
4aa
8.aaL
16bbJk
4aa
8.eeL
16ddJk
=
8.cc#L
16ddJk
8.eeL
16ff#Jk
4gg
4ee
=
4aa
8.eeL
16ddJk
4b
8.gL
16bJk
=
8.eeL
16ddJk
8.bL
16aJk
8.gL
16bJk
8.ddL
16eeJk
=
16cc#KL
8.eeJ
4a
4a
8.cc#L
16ddJk
!!linebreak:original
=
4ee
8.cc#L
16aJk
4aa
8.eeL
16ff#Jk
=
4gg
8.eeL
16ddJk
8.bL
16aJk
8.gL
16bJk
=
4a
4ee
4a
12eeL
12ff#
12ggJ
=||
*M4/4
8.eeL
16ddJk
=||
16cc#KL
8.eeJ
4a
4a
8.cc#L
16ddJk
=
4ee
8.cc#L
16aJk
4aa
8.eeL
16ff#Jk
!!linebreak:original
=
4gg
8.eeL
16ddJk
4b
8.gL
16bJk
=
8.eeL
16ddJk
8.bL
16aJk
8.gL
16bJk
8.ddL
16eeJk
=
16cc#KL
8.eeJ
4a
4a
8.cc#L
16ddJk
=
4ee
8.cc#L
16aJk
4aa
8.eeL
16ff#Jk
=
4gg
8.eeL
16ddJk
8.bL
16aJk
8.gL
16bJk
!!linebreak:original
=
4a
4ee
4a
8.eeL
16ddJk
=||
16cc#KL
8.eeJ
4a
4a
8.cc#L
16ddJk
=
4ee
8.cc#L
16aJk
4aa
8.eeL
16ff#Jk
=
4gg
8.eeL
16ddJk
4b
8.gL
16bJk
=
8.eeL
16ddJk
8.bL
16aJk
8.gL
16bJk
8.ddL
16eeJk
!!linebreak:original
=
16cc#KL
8.eeJ
4a
4a
8.cc#L
16ddJk
=
4ee
8.cc#L
16aJk
4aa
8.eeL
16ff#Jk
=
4gg
8.eeL
16ddJk
8.bL
16aJk
8.gL
16bJk
=
4a
4ee
4a
12eeL
12ff#
12ggJ
=||
4aa
8.aaL
16bbJk
4aa
8.eeL
16ddJk
!!linebreak:original
=
8.cc#L
16ddJk
8.eeL
16ff#Jk
4gg
4ee
=
4aa
8.eeL
16ddJk
4b
8.gL
16bJk
=
8.eeL
16ddJk
8.bL
16aJk
8.gL
16bJk
8.ddL
16eeJk
=
16cc#KL
8.eeJ
4a
4a
8.cc#L
16ddJk
=
4ee
8.cc#L
16aJk
4aa
8.eeL
16ff#Jk
!!linebreak:original
=
4gg
8.eeL
16ddJk
8.bL
16aJk
8.gL
16bJk
=
4a
4ee
4a
8.eeL
16ddJk
=||
*-
